groups/nitrogen/nitro.svg

<?xml version='1.0' encoding='iso-8859-1'?>
<svg version='1.1' baseProfile='full'
              xmlns='http://www.w3.org/2000/svg'
                      xmlns:rdkit='http://www.rdkit.org/xml'
                      xmlns:xlink='http://www.w3.org/1999/xlink'
                  xml:space='preserve'
width='256px' height='256px' viewBox='0 0 256 256'>
<!-- END OF HEADER -->
<rect style='opacity:1.0;fill:#FFFFFF;stroke:none' width='256.0' height='256.0' x='0.0' y='0.0'> </rect>
<path class='bond-0 atom-0 atom-1' d='M 42.9,186.6 L 113.8,146.0' style='fill:none;fill-rule:evenodd;stroke:#000000;stroke-width:2.0px;stroke-linecap:butt;stroke-linejoin:miter;stroke-opacity:1' />
<path class='bond-1 atom-1 atom-2' d='M 136.6,122.0 L 136.8,61.2' style='fill:none;fill-rule:evenodd;stroke:#000000;stroke-width:2.0px;stroke-linecap:butt;stroke-linejoin:miter;stroke-opacity:1' />
<path class='bond-1 atom-1 atom-2' d='M 121.7,121.9 L 121.9,61.2' style='fill:none;fill-rule:evenodd;stroke:#000000;stroke-width:2.0px;stroke-linecap:butt;stroke-linejoin:miter;stroke-opacity:1' />
<path class='bond-2 atom-1 atom-3' d='M 144.4,146.1 L 199.7,178.3' style='fill:none;fill-rule:evenodd;stroke:#000000;stroke-width:2.0px;stroke-linecap:butt;stroke-linejoin:miter;stroke-opacity:1' />
<path class='atom-1' d='M67.6154,229.665 C70.8471,227.815 68.3802,223.506 65.1485,225.356 C61.9169,227.206 59.45,222.897 62.6817,221.047 C65.9133,219.196 63.4465,214.887 60.2148,216.738 C56.9832,218.588 54.5163,214.279 57.748,212.428 C60.9796,210.578 58.5128,206.269 55.2811,208.119 C52.0494,209.969 49.5826,205.66 52.8142,203.81 C56.0459,201.96 53.579,197.651 50.3474,199.501 C47.1157,201.351 44.6489,197.042 47.8805,195.192 C51.1122,193.342 48.6453,189.033 45.4137,190.883 C42.182,192.733 39.7151,188.424 42.9468,186.574 C46.1785,184.724 43.7116,180.415 40.4799,182.265 C37.2483,184.115 34.7814,179.806 38.0131,177.956 C41.2447,176.106 38.7779,171.797 35.5462,173.647 C32.3146,175.497 29.8477,171.188 33.0794,169.338 C36.311,167.488 33.8442,163.179 30.6125,165.029 C27.3808,166.879 24.914,162.57 28.1456,160.72 C31.3773,158.87 28.9104,154.561 25.6788,156.411 C22.4471,158.261 19.9803,153.952 23.2119,152.102 C26.4436,150.252 23.9767,145.942 20.7451,147.793 C17.5134,149.643 15.0465,145.334 18.2782,143.483' style='fill:none;stroke:#7F7F7F;stroke-width:2.0px;stroke-linecap:butt;stroke-linejoin:miter;stroke-opacity:1' />
<text x='117.1' y='157.2' class='atom-1' style='font-size:40px;font-style:normal;font-weight:normal;fill-opacity:1;stroke:none;font-family:sans-serif;text-anchor:start;fill:#000000' >N</text>
<text x='144.7' y='141.2' class='atom-1' style='font-size:26px;font-style:normal;font-weight:normal;fill-opacity:1;stroke:none;font-family:sans-serif;text-anchor:start;fill:#000000' >+</text>
<text x='117.5' y='57.9' class='atom-2' style='font-size:40px;font-style:normal;font-weight:normal;fill-opacity:1;stroke:none;font-family:sans-serif;text-anchor:start;fill:#000000' >O</text>
<text x='202.9' y='207.2' class='atom-3' style='font-size:40px;font-style:normal;font-weight:normal;fill-opacity:1;stroke:none;font-family:sans-serif;text-anchor:start;fill:#000000' >O</text>
<text x='230.5' y='191.2' class='atom-3' style='font-size:26px;font-style:normal;font-weight:normal;fill-opacity:1;stroke:none;font-family:sans-serif;text-anchor:start;fill:#000000' >-</text>
</svg>

<svg height="256" viewBox="0 0 256 256" width="256" xmlns="http://www.w3.org/2000/svg"><path d="m0 0h256v256h-256z" fill="#fff"/><g fill="none" stroke-width="2"><path d="m42.9 186.6 70.9-40.6" stroke="#000"/><path d="m136.6 122 .2-60.8" stroke="#000"/><path d="m121.7 121.9.2-60.7" stroke="#000"/><path d="m144.4 146.1 55.3 32.2" stroke="#000"/><path d="m67.615 229.665c3.232-1.85.765-6.159-2.466-4.309-3.232 1.85-5.699-2.459-2.467-4.309 3.231-1.851.765-6.16-2.467-4.309-3.232 1.85-5.699-2.459-2.467-4.31 3.232-1.85.765-6.159-2.467-4.309s-5.698-2.459-2.467-4.309c3.232-1.85.765-6.159-2.467-4.309-3.231 1.85-5.698-2.459-2.466-4.309 3.231-1.85.764-6.159-2.467-4.309-3.232 1.85-5.699-2.459-2.467-4.309s.765-6.159-2.467-4.309-5.699-2.459-2.467-4.309.765-6.159-2.467-4.309c-3.231 1.85-5.698-2.459-2.467-4.309 3.232-1.85.765-6.159-2.466-4.309-3.232 1.85-5.699-2.459-2.467-4.309 3.231-1.85.764-6.159-2.467-4.309-3.232 1.85-5.699-2.459-2.467-4.309s.765-6.16-2.467-4.309c-3.232 1.85-5.698-2.459-2.467-4.31" stroke="#7f7f7f"/></g><text font-family="sans-serif" font-size="40" x="117.1" y="157.2">N</text><text font-family="sans-serif" font-size="26" x="144.7" y="141.2">+</text><text font-family="sans-serif" font-size="40" x="117.5" y="57.9">O</text><text font-family="sans-serif" font-size="40" x="202.9" y="207.2">O</text><text font-family="sans-serif" font-size="26" x="230.5" y="191.2">-</text></svg>
